icons/1_Primary/AnyDesk.svg

<svg width="1024" height="1024" viewBox="0 0 1024 1024" fill="none" xmlns="http://www.w3.org/2000/svg">
<g clip-path="url(#clip0_2_1485)">
<path d="M512 1024C794.77 1024 1024 794.77 1024 512C1024 229.23 794.77 0 512 0C229.23 0 0 229.23 0 512C0 794.77 229.23 1024 512 1024Z" fill="#FF837D"/>
<path d="M768 511.759L590.72 688.999L551.24 650.239L689.77 511.759L551.24 373.939L590.72 334.459L768 511.759ZM611.27 511.999L433.63 334.359L256 511.999L433.63 689.639L611.27 511.999Z" fill="white"/>
</g>
<defs>
<clipPath id="clip0_2_1485">
<rect width="1024" height="1024" fill="white"/>
</clipPath>
</defs>
</svg>

<svg xmlns="http://www.w3.org/2000/svg" width="1024" height="1024" fill="none">
   <g clip-path="url(#a)">
      <path fill="#FF837D" d="M512 1024c282.77 0 512-229.23 512-512S794.77 0 512 0 0 229.23 0 512s229.23 512 512 512Z"/>
      <path fill="#fff" d="m768 511.759-177.28 177.24-39.48-38.76 138.53-138.48-138.53-137.82 39.48-39.48L768 511.759Zm-156.73.24-177.64-177.64L256 511.999l177.63 177.64 177.64-177.64Z"/>
   </g>
   <defs>
      <clipPath id="a">
         <path fill="#fff" d="M0 0h1024v1024H0z"/>
      </clipPath>
   </defs>
</svg>
